outputs/icons/people/person_manager_round.svg

<svg xmlns="http://www.w3.org/2000/svg" width="1200" height="1200" fill="none"><path fill="#000" d="M600 600c110.455 0 200-89.545 200-200 0-110.457-89.545-200-200-200-110.457 0-200 89.543-200 200 0 110.455 89.543 200 200 200M633.5 651c-11-.5-22-1-33.5-1-121 0-234 33.5-330.5 91-44 26-69.5 75-69.5 126.5V950c0 27.615 22.386 50 50 50h413c-39.5-56.5-63-125.5-63-200 0-53.5 12.5-103.5 33.5-149M871.135 605.625a12.495 12.495 0 0 0-15 0L705 718.975c-3.15 2.365-5 6.07-5 10v52.845c0 100.905 69.82 195.27 163.635 218.18 93.82-22.91 163.64-117.275 163.64-218.18v-52.845a12.52 12.52 0 0 0-5-10z"/></svg>

<svg width="1200" height="1200" viewBox="0 0 1200 1200" fill="none" xmlns="http://www.w3.org/2000/svg"><path d="M600 600C710.455 600 800 510.455 800 400C800 289.543 710.455 200 600 200C489.543 200 400 289.543 400 400C400 510.455 489.543 600 600 600Z" fill="black"/><path d="M633.5 651C622.5 650.5 611.5 650 600 650C479 650 366 683.5 269.5 741C225.5 767 200 816 200 867.5V950C200 977.615 222.386 1000 250 1000H663C623.5 943.5 600 874.5 600 800C600 746.5 612.5 696.5 633.5 651Z" fill="black"/><path d="M871.135 605.625C866.69 602.29 860.58 602.29 856.135 605.625L705 718.975C701.85 721.34 700 725.045 700 728.975V781.82C700 882.725 769.82 977.09 863.635 1000C957.455 977.09 1027.275 882.725 1027.275 781.82V728.975C1027.275 725.045 1025.42 721.34 1022.275 718.975L871.135 605.625Z" fill="black"/></svg>
